src/images_karasa_jaga_svg/cmd/sc_filefield.svg

<svg enable-background="new 0 0 128 128" height="16" viewBox="0 0 16 16" width="16" xmlns="http://www.w3.org/2000/svg" xmlns:xlink="http://www.w3.org/1999/xlink"><linearGradient id="a" gradientTransform="matrix(.9792 0 0 .9725 155.00204 12.876199)" gradientUnits="userSpaceOnUse" x1="-147.02736" x2="-69.948441" y1="-31.445087" y2="23.263849"><stop offset="0" stop-color="#8dd8e4"/><stop offset=".04431298" stop-color="#a8e2f1"/><stop offset=".33793688" stop-color="#0a9dc4"/><stop offset=".73121971" stop-color="#00718c"/><stop offset="1" stop-color="#002b38"/></linearGradient><linearGradient id="b" gradientUnits="userSpaceOnUse" x1="85.219681" x2="61.336319" y1="93.219681" y2="69.336319"><stop offset="0"/><stop offset="1" stop-color="#393b38"/></linearGradient><linearGradient id="c" gradientUnits="userSpaceOnUse" x1="96" x2="88.000198" y1="104" y2="96.000198"><stop offset="0" stop-color="#888a85"/><stop offset=".0072" stop-color="#8c8e89"/><stop offset=".0673" stop-color="#abaca9"/><stop offset=".1347" stop-color="#c5c6c4"/><stop offset=".2115" stop-color="#dbdbda"/><stop offset=".3012" stop-color="#ebebeb"/><stop offset=".4122" stop-color="#f7f7f6"/><stop offset=".5679" stop-color="#fdfdfd"/><stop offset="1" stop-color="#fff"/></linearGradient><radialGradient id="d" cx="102" cy="112.3047" gradientTransform="matrix(.9787234 0 0 .9818182 1.361705 1.163636)" gradientUnits="userSpaceOnUse" r="139.55859"><stop offset="0" stop-color="#535557"/><stop offset=".11366145" stop-color="#898a8c"/><stop offset=".20296688" stop-color="#ececec"/><stop offset=".2363" stop-color="#fafafa"/><stop offset=".2722" stop-color="#fff"/><stop offset=".5313" stop-color="#fafafa"/><stop offset=".8449" stop-color="#ebecec"/><stop offset="1" stop-color="#e1e2e3"/></radialGradient><radialGradient id="e" cx="102" cy="112.3047" gradientUnits="userSpaceOnUse" r="139.5585"><stop offset="0" stop-color="#00537d"/><stop offset=".0151" stop-color="#186389"/><stop offset=".0558" stop-color="#558ca8"/><stop offset=".0964" stop-color="#89afc3"/><stop offset=".1357" stop-color="#b3ccd8"/><stop offset=".1737" stop-color="#d4e2e9"/><stop offset=".2099" stop-color="#ecf2f5"/><stop offset=".2435" stop-color="#fafcfd"/><stop offset=".2722" stop-color="#fff"/></radialGradient><filter id="f"><feGaussianBlur stdDeviation="1.0394514"/></filter><filter id="g"><feGaussianBlur stdDeviation=".50063244"/></filter><filter id="h"><feGaussianBlur stdDeviation=".4901192"/></filter><filter id="i"><feGaussianBlur stdDeviation=".90565481"/></filter><filter id="j" height="1.247155" width="1.247155" x="-.123577" y="-.123577"><feGaussianBlur stdDeviation="1.7720846"/></filter><g transform="matrix(.125 0 0 .125 0 -.5)"><path d="m23 9 .04082 77.24138h61.13118c.53 0 1.039-.211 1.414-.586l32.828-32.828c.375-.375.586-.884.586-1.414v-42.41338z" filter="url(#f)" opacity=".715069" transform="matrix(1.0416667 0 0 1.0357143 -9.958333 -3.321534)"/><path d="m24.919999 10.931136v73.379314l58.676001-.0001c.53 0 1.039-.211 1.414-.586l31.484-31.765936c.375-.375.586-.884.586-1.414v-39.613278z" filter="url(#g)" opacity=".89589" transform="matrix(1.0416667 0 0 1.0357143 -9.958333 -3.321534)"/><path d="m23 9.9655172.040816 76.2758628h61.131184c.53 0 1.039-.211 1.414-.586 13.296921-8.21061 24.14086-19.26784 32.828-32.828.375-.375.586-.884.586-1.414v-41.4478628z" filter="url(#f)" opacity=".835616" transform="matrix(1.0416667 0 0 1.0357143 -9.958333 -3.321534)"/><path d="m16.000002 8v76h61.172c.53 0 1.039-.211 1.414-.586l32.827998-32.828c.375-.375.586-.884.586-1.414v-41.172z" fill="url(#e)"/><path d="m24.678725 16c-.539276 0-.978723.440836-.978723.981818l.3 58.036362c0 .54197.439447.98182.978723.98182h51.913022c.257404 0 .509915-.10407.691957-.28767l26.129526-26.23113c.18303-.1836.28677-.435927.28677-.694145v-31.805237c0-.540982-.43847-.981818-.97872-.981818z" fill="url(#d)"/><g transform="translate(.000002 -34)"><path d="m111.414 86.586c.25-.25-26.379-1.586-31.414-1.586-1.654 0-3 1.346-3 3 0 5.035 1.336 31.664 1.586 31.414z" filter="url(#j)" opacity=".906849"/><path d="m111.414 86.586c.375-.375-21.97-.586-31.414-.586-1.103 0-2 .897-2 2 0 9.444.211 31.789.586 31.414z" filter="url(#i)" opacity=".2"/><path d="m111.414 86.586c.239-.239-21.607.414-31.414.414-.553 0-1 .447-1 1 0 9.807-.653 31.653-.414 31.414z" fill="url(#b)" filter="url(#h)" opacity=".1"/><path d="m78.586 119.414s11.914-9.914 17.414-15.414 15.414-17.414 15.414-17.414-21.164 1.414-31.414 1.414c0 10.25-1.414 31.414-1.414 31.414z" fill="url(#c)"/></g></g><g transform="matrix(.125 0 0 .125 0 10.908938)"><rect fill="url(#a)" height="48" rx="11.636199" ry="9.974987" stroke-width=".9258" width="127.99816" x=".001839" y="-7.2715"/><path d="m8 .7285h112v32h-112z" fill="#e9e9e9" stroke-width=".815593"/><rect fill="#1450b3" height="16" rx=".135311" ry=".368394" stroke-width=".821731" width="80" x="24" y="8.7285"/></g></svg>

<?xml version="1.0" encoding="UTF-8" standalone="no"?>
<svg
   xmlns:dc="http://purl.org/dc/elements/1.1/"
   xmlns:cc="http://creativecommons.org/ns#"
   xmlns:rdf="http://www.w3.org/1999/02/22-rdf-syntax-ns#"
   xmlns:svg="http://www.w3.org/2000/svg"
   xmlns="http://www.w3.org/2000/svg"
   xmlns:sodipodi="http://sodipodi.sourceforge.net/DTD/sodipodi-0.dtd"
   xmlns:inkscape="http://www.inkscape.org/namespaces/inkscape"
   enable-background="new 0 0 128 128"
   height="128"
   viewBox="0 0 128 128"
   width="128"
   version="1.1"
   id="svg2921"
   sodipodi:docname="sc_filefield.svg"
   inkscape:version="0.92.3 (unknown)"
   inkscape:export-filename="/home/rizmut/Dokumen/Rizmut/Github/libreoffice-style-karasa-jaga/build/images_karasa_jaga/cmd/sc_filefield.png"
   inkscape:export-xdpi="12"
   inkscape:export-ydpi="12">
  <metadata
     id="metadata2927">
    <rdf:RDF>
      <cc:Work
         rdf:about="">
        <dc:format>image/svg+xml</dc:format>
        <dc:type
           rdf:resource="http://purl.org/dc/dcmitype/StillImage" />
        <dc:title></dc:title>
      </cc:Work>
    </rdf:RDF>
  </metadata>
  <defs
     id="defs2925">
    <linearGradient
       id="k"
       gradientTransform="matrix(1.0185733,0,0,0.82407071,-0.713472,13.082578)"
       gradientUnits="userSpaceOnUse"
       x1="3.587285"
       x2="107.14484"
       y1="4.73702"
       y2="79.217056">
      <stop
         offset="0"
         stop-color="#6fc5dd"
         id="stop82" />
      <stop
         offset="1"
         stop-color="#042f3a"
         stop-opacity=".894118"
         id="stop84" />
    </linearGradient>
  </defs>
  <sodipodi:namedview
     pagecolor="#ffffff"
     bordercolor="#666666"
     borderopacity="1"
     objecttolerance="10"
     gridtolerance="10"
     guidetolerance="10"
     inkscape:pageopacity="0"
     inkscape:pageshadow="2"
     inkscape:window-width="1366"
     inkscape:window-height="706"
     id="namedview2923"
     showgrid="true"
     inkscape:zoom="1.84375"
     inkscape:cx="143.05614"
     inkscape:cy="49.172592"
     inkscape:window-x="0"
     inkscape:window-y="0"
     inkscape:window-maximized="1"
     inkscape:current-layer="svg2921">
    <inkscape:grid
       type="xygrid"
       id="grid2949"
       spacingx="4"
       spacingy="4"
       empspacing="2" />
  </sodipodi:namedview>
  <linearGradient
     id="a"
     gradientUnits="userSpaceOnUse"
     x1="85.219681"
     x2="61.336319"
     y1="93.219681"
     y2="69.336319">
    <stop
       offset="0"
       id="stop2826" />
    <stop
       offset="1"
       stop-color="#393b38"
       id="stop2828" />
  </linearGradient>
  <linearGradient
     id="b"
     gradientUnits="userSpaceOnUse"
     x1="96"
     x2="88.0002"
     y1="104"
     y2="96.0002">
    <stop
       offset="0"
       stop-color="#888a85"
       id="stop2831" />
    <stop
       offset=".0072"
       stop-color="#8c8e89"
       id="stop2833" />
    <stop
       offset=".0673"
       stop-color="#abaca9"
       id="stop2835" />
    <stop
       offset=".1347"
       stop-color="#c5c6c4"
       id="stop2837" />
    <stop
       offset=".2115"
       stop-color="#dbdbda"
       id="stop2839" />
    <stop
       offset=".3012"
       stop-color="#ebebeb"
       id="stop2841" />
    <stop
       offset=".4122"
       stop-color="#f7f7f6"
       id="stop2843" />
    <stop
       offset=".5679"
       stop-color="#fdfdfd"
       id="stop2845" />
    <stop
       offset="1"
       stop-color="#fff"
       id="stop2847" />
  </linearGradient>
  <radialGradient
     id="c"
     cx="102"
     cy="112.3047"
     gradientTransform="matrix(0.9787234,0,0,0.9818182,1.361705,1.163636)"
     gradientUnits="userSpaceOnUse"
     r="139.55859">
    <stop
       offset="0"
       stop-color="#535557"
       id="stop2850" />
    <stop
       offset=".11366145"
       stop-color="#898a8c"
       id="stop2852" />
    <stop
       offset=".20296688"
       stop-color="#ececec"
       id="stop2854" />
    <stop
       offset=".2363"
       stop-color="#fafafa"
       id="stop2856" />
    <stop
       offset=".2722"
       stop-color="#fff"
       id="stop2858" />
    <stop
       offset=".5313"
       stop-color="#fafafa"
       id="stop2860" />
    <stop
       offset=".8449"
       stop-color="#ebecec"
       id="stop2862" />
    <stop
       offset="1"
       stop-color="#e1e2e3"
       id="stop2864" />
  </radialGradient>
  <radialGradient
     id="d"
     cx="102.000002"
     cy="112.3047"
     gradientUnits="userSpaceOnUse"
     r="139.5585">
    <stop
       offset="0"
       stop-color="#00537d"
       id="stop2867" />
    <stop
       offset=".0151"
       stop-color="#186389"
       id="stop2869" />
    <stop
       offset=".0558"
       stop-color="#558ca8"
       id="stop2871" />
    <stop
       offset=".0964"
       stop-color="#89afc3"
       id="stop2873" />
    <stop
       offset=".1357"
       stop-color="#b3ccd8"
       id="stop2875" />
    <stop
       offset=".1737"
       stop-color="#d4e2e9"
       id="stop2877" />
    <stop
       offset=".2099"
       stop-color="#ecf2f5"
       id="stop2879" />
    <stop
       offset=".2435"
       stop-color="#fafcfd"
       id="stop2881" />
    <stop
       offset=".2722"
       stop-color="#fff"
       id="stop2883" />
  </radialGradient>
  <filter
     id="e">
    <feGaussianBlur
       stdDeviation="1.0394514"
       id="feGaussianBlur2886" />
  </filter>
  <filter
     id="f">
    <feGaussianBlur
       stdDeviation=".50063244"
       id="feGaussianBlur2889" />
  </filter>
  <filter
     id="g">
    <feGaussianBlur
       stdDeviation=".4901192"
       id="feGaussianBlur2892" />
  </filter>
  <filter
     id="h">
    <feGaussianBlur
       stdDeviation=".90565481"
       id="feGaussianBlur2895" />
  </filter>
  <filter
     id="i"
     height="1.247155"
     width="1.247155"
     x="-.123577"
     y="-.123577">
    <feGaussianBlur
       stdDeviation="1.7720846"
       id="feGaussianBlur2898" />
  </filter>
  <g
     id="g3482"
     transform="translate(-2e-6,-4)">
    <path
       id="path2901"
       transform="matrix(1.0416667,0,0,1.0357143,-9.958333,-3.321534)"
       d="m 23,9 0.04082,77.24138 H 84.172 c 0.53,0 1.039,-0.211 1.414,-0.586 l 32.828,-32.828 c 0.375,-0.375 0.586,-0.884 0.586,-1.414 V 9 Z"
       inkscape:connector-curvature="0"
       style="opacity:0.71506898;filter:url(#e)"
       sodipodi:nodetypes="ccsssscc" />
    <path
       id="path2903"
       transform="matrix(1.0416667,0,0,1.0357143,-9.958333,-3.321534)"
       d="m 24.919999,10.931136 0,73.379314 58.676001,-1e-4 c 0.53,0 1.039,-0.211 1.414,-0.586 l 31.484,-31.765936 c 0.375,-0.375 0.586,-0.884 0.586,-1.414 V 10.931136 Z"
       inkscape:connector-curvature="0"
       style="opacity:0.89589;filter:url(#f)"
       sodipodi:nodetypes="cccccscc" />
    <path
       id="path2905"
       transform="matrix(1.0416667,0,0,1.0357143,-9.958333,-3.321534)"
       d="M 23,9.9655172 23.040816,86.24138 H 84.172 c 0.53,0 1.039,-0.211 1.414,-0.586 13.296921,-8.21061 24.14086,-19.26784 32.828,-32.828 0.375,-0.375 0.586,-0.884 0.586,-1.414 V 9.9655172 Z"
       inkscape:connector-curvature="0"
       style="opacity:0.83561599;filter:url(#e)"
       sodipodi:nodetypes="ccsccscc" />
    <path
       id="path2907"
       d="m 16.000002,8 v 76 h 61.172 c 0.53,0 1.039,-0.211 1.414,-0.586 L 111.414,50.586 C 111.789,50.211 112,49.702 112,49.172 V 8 Z"
       style="fill:url(#d)"
       inkscape:connector-curvature="0"
       sodipodi:nodetypes="ccsssscc" />
    <path
       id="path2909"
       d="m 24.678725,16 c -0.539276,0 -0.978723,0.440836 -0.978723,0.981818 l 0.3,58.036362 c 0,0.54197 0.439447,0.98182 0.978723,0.98182 h 51.913022 c 0.257404,0 0.509915,-0.10407 0.691957,-0.28767 L 103.71323,49.4812 C 103.89626,49.2976 104,49.045273 104,48.787055 V 16.981818 C 104,16.440836 103.56153,16 103.02128,16 Z"
       style="fill:url(#c)"
       inkscape:connector-curvature="0"
       sodipodi:nodetypes="sccssccssss" />
    <g
       id="g2919"
       transform="translate(2e-6,-34)">
      <path
         id="path2911"
         d="M 111.414,86.586 C 111.664,86.336 85.035,85 80,85 c -1.654,0 -3,1.346 -3,3 0,5.035 1.336,31.664 1.586,31.414 z"
         inkscape:connector-curvature="0"
         style="opacity:0.90684904;filter:url(#i)" />
      <path
         id="path2913"
         d="M 111.414,86.586 C 111.789,86.211 89.444,86 80,86 c -1.103,0 -2,0.897 -2,2 0,9.444 0.211,31.789 0.586,31.414 z"
         inkscape:connector-curvature="0"
         style="opacity:0.2;filter:url(#h)" />
      <path
         id="path2915"
         d="M 111.414,86.586 C 111.653,86.347 89.807,87 80,87 c -0.553,0 -1,0.447 -1,1 0,9.807 -0.653,31.653 -0.414,31.414 z"
         style="opacity:0.1;fill:url(#a);filter:url(#g)"
         inkscape:connector-curvature="0" />
      <path
         id="path2917"
         d="m 78.586,119.414 c 0,0 11.914,-9.914 17.414,-15.414 5.5,-5.5 15.414,-17.414 15.414,-17.414 0,0 -21.164,1.414 -31.414,1.414 0,10.25 -1.414,31.414 -1.414,31.414 z"
         style="fill:url(#b)"
         inkscape:connector-curvature="0" />
    </g>
  </g>
  <g
     id="g1647"
     transform="translate(0,87.2715)">
    <rect
       id="rect1056"
       width="127.99816"
       ry="9.974987"
       rx="11.636199"
       height="48"
       style="fill:url(#k);stroke-width:0.92579967"
       x="0"
       y="-7.2715001" />
    <path
       id="path1058"
       d="m 8,0.7285 h 112 v 32 H 8 Z"
       style="fill:#e9e9e9;stroke-width:0.81559312"
       inkscape:connector-curvature="0"
       sodipodi:nodetypes="ccccc" />
    <rect
       id="rect1060"
       y="8.7285004"
       x="24"
       width="80"
       ry="0.36839446"
       rx="0.13531074"
       height="16"
       style="fill:#1450b3;stroke-width:0.82173139" />
  </g>
</svg>
